!!!COM: Mozart, Wolfgang Amadeus
!!!CDT: 1756/01/27/-1791/12/05/
!!!CNT: German
!!!OTL: Piano Sonata No. 6 in D major
!!!SCT1: K<sup>1</sup> 284
!!!SCT2: K<sup>6</sup> 205b
!!!OMV: Mvmt. 2
!!!OMD: Rondeau en polonaise: Andante
!!!ODT: 1775///
**kern	**kern	**dynam
*staff2	*staff1	*staff1/2
*clefF4	*clefG2	*clefG2
*k[f#c#g#]	*k[f#c#g#]	*k[f#c#g#]
*A:	*A:	*A:
*M3/4	*M3/4	*M3/4
*MM104	*MM104	*MM104
=1-	=1-	=1-
2A\ 2c#\	2a/	f
4E\ 4d\	(8.b/L	.
.	16g#/Jk	.
=2	=2	=2
8A\ 8c#\	8a/)	.
(8c#\L	(8e/L	p
8B#\	8d#/	.
8c#\	8e/	.
8Bn\	8dn/	.
8A\J)	8c#/J)	.
=3	=3	=3
2E\ 2G#\	2b\	f
4A\ 4e\	(8.cc#\L	.
.	16a\Jk	.
=4	=4	=4
8G#\ 8e\	8dd\)	.
(8B\L	(8d/L	p
8A#\	8c#/	.
8B\	8d/	.
8An\	8c#/	.
8G#\J)	8B/J)	.
*clefG2	*	*
=5	=5	=5
4r	4.ee\	.
(4c#/ 4e/ 4a/	.	.
.	(32ff#\LLL	f
.	32ee\	.
.	32dd\	.
.	32cc#\JJJ	.
4B/) 4e/ 4g#/	8dd'\L)	.
.	8dd'\J	.
*clefF4	*	*
=6	=6	=6
4r	4.cc#\	p
4A\ 4c#\ 4e\	.	.
.	(32dd\LLL	f
.	32cc#\	.
.	32b\	.
.	32a\JJJ	.
4D\ 4E\ 4B\	8g#'/L)	.
.	8g#'/J	.
=7	=7	=7
8r	4.a/	p
(8C#\L	.	.
8c#\J)	.	.
8d\ 8e\L	8g#/ 8b/L	.
8c#\ 8e\	8a/ 8cc#/	.
8B\ 8e\J	8b/ 8dd/J	.
=8	=8	=8
*	*^	*
8A\ (8e\L	(16dd#/LL	8cc#\L	.
.	16ee/	.	.
8d\J)	16ff#/	16ddn\L	.
.	16dd/JJ)	16b\JJ	.
4e\	(4cc#/	(4a\	.
4E\	4b/)	4g#\)	.
*	*v	*v	*
=9	=9	=9
*^	*	*
4ryy	4r	([4a/	f
4c#/	4A\	12a/L]	.
.	.	12e/	.
.	.	12cc#/J	.
(8B/L	4E\	12dd/L	.
.	.	12b/	.
8d/J	.	.	.
.	.	12g#/J	.
*v	*v	*	*
=10	=10	=10
8A\ 8c#\)	8a/)	.
(8c#\L	(8e/L	p
8B#\	8d#/	.
8c#\	8e/	.
8Bn\	8dn/	.
8A\J)	8c#/J)	.
=11	=11	=11
4r	([4b\	f
4E\ 4G#\	12b/L]	.
.	12e/	.
.	12dd/J	.
4A\ 4e\	12cc#\L	.
.	12a\	.
.	12ff#\J	.
=12	=12	=12
.	32eeq/	.
8r	8dd\)	.
(8B\L	(8d/L	p
8A#\	8c#/	.
8B\	8d/	.
8An\	8c#/	.
8G#\J)	8B/J)	.
*clefG2	*	*
=13	=13	=13
4r	[4ee\	.
(4c#/ 4a/	16ee\LL]	f
.	(16ee#\	.
.	16ff#\	.
.	16cc#\JJ	.
.	32eenq/	.
4B/) 4g#/	8dd'\L)	p
.	8dd'\J	.
*clefF4	*	*
=14	=14	=14
4r	[4cc#\	.
4A\ 4e\	16cc#\LL]	f
.	(16dd#\	.
.	16ee\	.
.	16a\JJ	.
.	32aq/	.
4d\ 4e\	8g#'/L)	p
.	8g#'/J	.
=15	=15	=15
*^	*	*
4ryy	4c#\ 4e\	(16a\LL	.
.	.	16b\	<
.	.	16cc#\	.
.	.	16ddn\JJ	.
[2A/	(4C#\	16ee\LL	.
.	.	16ff#\	.
.	.	16gg#\	.
.	.	16aa\JJ	.
.	4D\)	16gg#\LL	.
.	.	16ff#\	.
.	.	16ee\	.
.	.	16dd\JJ	.
=16	=16	=16	=16
*	*	*^	*
(8A/L]	4E\	16cc#\LL	4ryy	f
.	.	16ee\	.	.
8G#/J)	.	16dd\)	.	.
.	.	16b\JJ	.	.
2ryy	8A\L	2e\	4d/ (4b/	.
.	8E\J	.	.	.
.	4AA/	.	4c#/ 4a/)	.
*v	*v	*	*	*
*	*v	*v	*
=17	=17	=17
(16A\LL	4.a/	p
16e\	.	.
16B\	.	.
16e\JJ	.	.
16c#\LL	.	.
16e\	.	.
16d\	(8g#S/L	.
16e\JJ	.	.
16c#\LL	8a/)	.
16e\	.	.
16d\	(8g#w/J	.
16e\JJ	.	.
=18	=18	=18
16c#\LL	8a\L)	.
16e\	.	.
16G#\	(8bW\	.
16e\JJ	.	.
16A\LL	8cc#\)	.
16e\	.	.
16B\	(16ee\L	.
16e\JJ	16dd\J)	.
16A\LL	8cc#\	.
16e\	.	.
16G#\	8b\J	.
16e\JJ	.	.
=19	=19	=19
16E\LL	4.b\	.
16e\	.	.
16F#\	.	.
16e\JJ	.	.
16G#\LL	.	.
16e\	.	.
16F#\	(8a#S/L	.
16e\JJ	.	.
16G#\LL	8b/)	.
16e\	.	.
16F#\	(8a#w/J	.
16e\JJ	.	.
=20	=20	=20
16G#\LL	8b\L)	.
16e\	.	.
16A\	(8cc#w\	.
16e\JJ	.	.
16B\LL	8dd\)	.
16e\	.	.
16c#\	(16ff#\L	.
16e\JJ	16ee\J)	.
16B\LL	(8dd\	.
16e\	.	.
16A\	8cc#\J)	.
16e\JJ)	.	.
=21	=21	=21
8r	(32cc#\LLK	f
.	16.ccc#\JJ)	.
8A\ 8e\	4ccc#\	p
4A\ 4e\	.	.
.	(32bb\LLK	.
.	16.aa\JJ)	.
4r	(32gg#\LLK	.
.	16.ff#\JJ)	.
.	(32ee#\LLK	.
.	16.ff#\JJ)	.
=22	=22	=22
8r	(32a\LLK	f
.	16.aa\JJ)	.
8F#\ 8B\ 8d#\	4aa\	p
4F#\ 4B\ 4d#\	.	.
.	(32gg#\LLK	.
.	16.ff#\JJ)	.
4r	(32een\LLK	.
.	16.dd#\JJ)	.
.	(32cc#\LLK	.
.	16.b\JJ)	.
=23	=23	=23
4r	(8b\	.
.	4ee\	.
4G#\ 4e\	.	.
.	8b\L	.
4A\ 4e\	8cc#\	.
.	8a\J)	.
=24	=24	=24
4r	(8g#/	.
.	4b/	.
4B\ 4d#\	.	.
.	8a#/L	.
4BB/	8an/	.
.	8f#/J)	.
=25	=25	=25
(16E\LL	(16g#\LL	.
16B\	16b\	<
16G#\	16cc#\	.
16B\JJ	16dd#\JJ	.
16E\LL	16ee\LL	.
16B\	16ff#\	.
16G#\	16gg#\	.
16B\JJ	16aa\JJ	.
16E\LL	16bb\LL	.
16B\	16ccc#\	.
16G#\	16bb\	.
16B\JJ	16gg#\JJ	.
=26	=26	=26
16F#\LL	16aa\LL	f
16B\	16bb\	.
16A\	16aa\	.
16B\JJ	16ff#\JJ	.
16F#\LL	16dd#\LL	p
16B\	16ee\	.
16A\	16dd#\	.
16B\JJ	16b\JJ	.
16D#\LL	16a/LL	.
16B\	16b/	.
16F#\	16a/	.
16B\JJ)	16f#/JJ)	.
=27	=27	=27
(16E\LL	(16g#\LL	.
16B\	16b\	<
16G#\	16cc#\	.
16B\JJ	16dd#\JJ	.
16E\LL	16ee\LL	.
16B\	16ff#\	.
16G#\	16gg#\	.
16B\JJ	16aa\JJ	.
16E\LL	16bb\LL	.
16B\	16ccc#\	.
16G#\	16bb\	.
16B\JJ	16gg#\JJ	.
=28	=28	=28
16F#\LL	16aa\LL	f
16B\	16bb\	.
16A\	16aa\	.
16B\JJ	16ff#\JJ	.
16F#\LL	16dd#\LL	p
16B\	16ee\	.
16A\	16dd#\	.
16B\JJ	16b\JJ	.
16D#\LL	16a/LL	.
16B\	16b/	.
16F#\	16a/	.
16B\JJ	16f#/JJ)	.
=29	=29	=29
4E\)	(16g#\LL	p
.	16b\	.
.	16ee\	f
.	16dd#\JJ)	.
4A\	(16dd#\LL	p
.	16cc#\	.
.	16aa\	f
.	16gg#\JJ)	.
4r	(16gg#\LL	p
.	16ff#\	.
.	16ccc#\	f
.	16bb\JJ)	.
=30	=30	=30
*	*^	*
8r	8ryy	(16bb\LL	.
.	.	16aa\JJ)	.
8B\ 8d#\	(16gg#/LL	8a\	p
.	16ff#/JJ)	.	.
8e\L	(4ff#/	(4a\	.
8B\J	.	.	.
4E\	4ee/)	4g#\)	.
*	*v	*v	*
=31	=31	=31
.	(32eeq/	.
4r	2a/)	p
4A\ 4c#\	.	.
4E\ 4dn\	(16b/LL	.
.	16a/	.
.	16b/	.
.	16g#/JJ	.
=32	=32	=32
8A\ 8c#\	8a/)	.
8C#\ (8c#\L	(8e/ 8ee/L	f
8BB#\ 8B#\	8d#/ 8dd#/	.
8C#\ 8c#\	8e/ 8ee/	.
8BBn\ 8Bn\	8dn/ 8ddn/	.
8AA\ 8A\J)	8c#/) 8cc#/J	.
=33	=33	=33
.	32eeq/	.
4r	2b\	p
4G#\ 4e\	.	.
4A\ 4e\	(16cc#\LL	.
.	16b\	.
.	16cc#\	.
.	16a\JJ	.
=34	=34	=34
8B\ 8e\	8dd\)	.
8BB\ (8B\L	(8d/ 8dd/L	f
8AA#\ 8A#\	8c#/ 8cc#/	.
8BB\ 8B\	8d/ 8dd/	.
8AAn\ 8An\)	8c#/ 8cc#/	.
8GG#\ 8G#\J	8B/) 8b/J	.
=35	=35	=35
.	32dd#q/LLL	.
.	32eeq/	.
.	32ff#q/JJJ	.
4r	(2eeT\	f
4C#\ 4c#\	.	.
.	32ff#q/	.
4BB\ 4B\	8ddn\)	p
.	8r	.
=36	=36	=36
.	(32bq/LLL	.
.	32cc#q/	.
.	32ddq/JJJ	.
4r	2cc#t\	f
4E\ 4e\	.	.
.	32ddq/	.
4D\ 4d\	8b\)	p
.	8r	.
=37	=37	=37
4C#\ 4c#\	(16.a/LL	.
.	32b/k	.
.	16a/	.
.	16g#/JJ	.
8r	8a/L)	.
8d'\L	8g#'/ 8b'/	.
8c#'\	8a'/ 8cc#'/	.
8B'\J	8b'/ 8dd'/J	.
=38	=38	=38
(8A\L	4cc#\ 4ee\	f
8C#\J)	.	.
2E\	16dd\ (16ff#\LL	.
.	16cc#\ 16ee\	.
.	16b\ 16dd\	.
.	16a\ 16cc#\JJ)	.
.	4g#/ 4b/	p
=39	=39	=39
*^	*	*
4ryy	4r	[4a/	f
4c#/	4A\	16a/LL]	.
.	.	(16e/	.
.	.	16cc#/)	.
.	.	16cc#'/JJ	.
(8B/L	4E\	(16cc#/LL	.
.	.	16dd/	.
8d/J	.	16b/	.
.	.	16g#/JJ	.
*v	*v	*	*
=40	=40	=40
8A\ 8c#\)	8a/)	.
(8e\L	(8ccc#\L	p
8d#\	8bb#\	.
8e\	8ccc#\	.
8dn\	8bbn\	.
8c#\J)	8aa\J)	.
=41	=41	=41
4r	[4b/	f
4E\ 4G#\	16b/LL]	.
.	(16e/	.
.	16dd/)	.
.	16dd'/JJ	.
4E\ 4A\	(16dd\LL	.
.	16cc#\	.
.	16ee\	.
.	16cc#\JJ	.
=42	=42	=42
8E\ 8G#\	8b\)	.
(8d\L	(8bb\L	p
8c#\	8aa#\	.
8d\	8bb\	.
8c#\	8aan\	.
8B\J)	8gg#\J)	.
*clefG2	*	*
=43	=43	=43
4r	[4ee\	.
4c#/ 4e/ 4a/	24ee\LL]	f
.	24ff#'\	.
.	24gg#'\JJ	.
.	24aa'\LL	.
.	24bb'\	.
.	24ccc#'\JJ	.
4B/ 4d/ 4g#/	8ddd\	.
.	16r	.
.	16dd\	p
*clefF4	*	*
=44	=44	=44
4r	[4cc#\	f
4A\ 4c#\ 4e\	24cc#\LL]	.
.	24dd'\	.
.	24ee'\JJ	.
.	24ff#'\LL	.
.	24gg#'\	.
.	24aa'\JJ	.
4D\ 4E\ 4G#\	8bb\	.
.	16r	.
.	16gg#\	p
=45	=45	=45
8r	(16bb\LK	.
.	8aa\	.
8C#\ 8E\ 8A\	.	.
.	16ee\Jk)	.
8r	(16gg#\LK	.
.	8ff#\	.
8D\ 8F#\ 8A\	.	.
.	16cc#\Jk)	.
8r	(16ee\LK	.
.	8dd\	.
8F#\ 8A\ 8d\	.	.
.	16a\Jk)	.
=46	=46	=46
8r	(16cc#/LK	.
.	8b/	.
8E\ 8d\	.	.
.	16g#/Jk)	.
8A\L	(4d/ (4g#/	.
8E\J	.	.
4AA/	8c#/) 8a/)	.
.	8e#/	f
=47	=47	=47
16F#\LL	4f#/	.
16c#\	.	.
16A\	.	.
16c#\JJ	.	.
16F#\LL	16r	.
16c#\	16cc#'\LL	p
16A\	16cc#'\	.
16c#\JJ	16cc#'\JJ	.
16F#\LL	16cc#'\LL	.
16c#\	16cc#'\	.
16A\	16cc#'\	.
16c#\JJ	16cc#'\JJ	.
=48	=48	=48
16E#\LL	4cc#t\	f
16B\	.	.
16G#\	.	.
16B\JJ	.	.
16E#\LL	16r	.
16B\	16cc#'\LL	p
16G#\	16cc#'\	.
16B\JJ	16cc#'\JJ	.
16E#\LL	16cc#'\LL	.
16B\	16cc#'\	.
16G#\	16cc#'\	.
16B\JJ	16cc#'\JJ	.
=49	=49	=49
16En\LL	4cc#t\	f
16A#\	.	.
16Gn\	.	.
16A#\JJ	.	.
16E\LL	16r	.
16A#\	16cc#'\LL	p
16G\	16cc#'\	.
16A#\JJ	16cc#'\JJ	.
16E\LL	16cc#'\LL	.
16A#\	16cc#'\	.
16G\	16cc#'\	.
16A#\JJ	16cc#'\JJ	.
=50	=50	=50
16D#\LL	(8.ff#\L	f
16B\	.	.
16F#\	.	.
16B\JJ	16dd#\Jk	.
16D#\LL	4b\)	p
16B\	.	.
16F#\	.	.
16B\JJ	.	.
16D#\LL	4r	.
16B\	.	.
16F#\	.	.
16B\JJ	.	.
=51	=51	=51
16Dn\LL	(8.aa\L	f
16B#\	.	.
16F#\	.	.
16B#\JJ	16ff#\Jk	.
16D\LL	4b#\)	p
16B#\	.	.
16F#\	.	.
16B#\JJ	.	.
16D\LL	8r	.
16B#\	.	.
16F#\	(8b#\	.
16B#\JJ	.	.
=52	=52	=52
4C#\ 4E#\	16cc#/LL)	.
.	(16c#/	.
.	16B#/	.
.	16c#/JJ	.
4r	16B#/LL	.
.	16c#/	.
.	16B#/	.
.	16c#/JJ	.
4r	16B#/LL	.
.	16c#/	.
.	16B#/	.
.	16c#/JJ)	.
=53	=53	=53
(16D\LL	4.d/	f
16A\	.	.
16En\	.	.
16A\JJ	.	.
16F#\LL	.	.
16A\	.	.
16Gn\	(8c#S/L	.
16A\JJ	.	.
16F#\LL	8d/)	.
16A\	.	.
16G\	(8c#w/J	.
16A\JJ	.	.
=54	=54	=54
16F#\LL	8d/L)	.
16A\	.	.
16C#\	(8eW/	.
16A\JJ	.	.
16D\LL	8f#/)	.
16A\	.	.
16E\	(16a/L	.
16A\JJ	16gn/J)	.
16D\LL	(8f#/	.
16A\	.	.
16C#\	8e/J)	.
16A\JJ	.	.
=55	=55	=55
16AA\LL	4.e/	p
16A\	.	.
16BB\	.	.
16A\JJ	.	.
16C#\LL	.	.
16A\	.	.
16BB\	(8d#S/L	.
16A\JJ	.	.
16C#\LL	8e/)	.
16A\	.	.
16BB\	(8d#w/J	.
16A\JJ	.	.
=56	=56	=56
16C#\LL	8e/L)	.
16A\	.	.
16D\	(8f#w/	.
16A\JJ	.	.
16E\LL	8gn/)	.
16A\	.	.
16F#\	(16b/L	.
16A\JJ	16a/J)	.
16E\LL	(8g/	.
16A\	.	.
16D\	8f#/J)	.
16A\JJ)	.	.
=57	=57	=57
8r	(32f#\LLK	f
.	16.ff#\JJ)	.
8D\ 8F#\ 8A\	4ff#\	p
4D\ 4F#\ 4A\	.	.
.	(32ee\LLK	.
.	16.dd\JJ)	.
4r	(32cc#\LLK	.
.	16.b\JJ)	.
.	(32a#/LLK	.
.	16.b/JJ)	.
=58	=58	=58
8r	(32d/LLK	f
.	16.dd/JJ)	.
8BB\ 8E\ 8G#\	4dd\	p
4BB\ 4E\ 4G#\	.	.
.	(32cc#\LLK	.
.	16.b\JJ)	.
4r	(32an/LLK	.
.	16.g#/JJ)	.
.	(32f#/LLK	.
.	16.e/JJ)	.
=59	=59	=59
4r	(8e/	.
.	4ee\)	.
4C#\ 4E\ 4A\	.	.
.	(8a\L	.
4F#\ 4A\	8aa\	.
.	8dd\J)	.
=60	=60	=60
4r	(8cc#\	.
.	4ee\	.
4E\ 4G#\	.	.
.	8dd#\L	.
4EE/	8ddn\	.
.	8b\J)	.
=61	=61	=61
(16A\LL	(16cc#\LL	.
16e\	16ee\	<
16c#\	16ff#\	.
16e\JJ	16gg#\JJ	.
16A\LL	16aa\LL	.
16e\	16bb\	.
16c#\	16ccc#\	.
16e\JJ	16ddd\JJ	.
16A\LL	16eee\LL	.
16e\	16ccc#\	.
16c#\	16gg#\	.
16e\JJ	16aa\JJ	.
=62	=62	=62
16B\LL	16ddd\LL	f
16e\	16bb\	.
16d\	16ff#\	.
16e\JJ	16gg#\JJ	.
16G#\LL	16bb\LL	p
16e\	16gg#\	.
16B\	16dd#\	.
16e\JJ	16ee\JJ	.
16E\LL	16ff#\LL	.
16e\	16ddn\	.
16G#\	16a#\	.
16e\JJ	16b\JJ)	.
=63	=63	=63
16A\LL	(16cc#\LL	.
16e\	16ee\	<
16c#\	16ff#\	.
16e\JJ	16gg#\JJ	.
16A\LL	16aan\LL	.
16e\	16bb\	.
16c#\	16ccc#\	.
16e\JJ	16ddd\JJ	.
16A\LL	16eee\LL	.
16e\	16ccc#\	.
16c#\	16gg#\	.
16e\JJ	16aa\JJ	.
=64	=64	=64
16B\LL	16ddd\LL	f
16e\	16bb\	.
16d\	16ff#\	.
16e\JJ	16gg#\JJ	.
16G#\LL	16bb\LL	p
16e\	16gg#\	.
16B\	16dd\	.
16e\JJ	16ee\JJ	.
16E\LL	16ff#\LL	.
16e\	16ddn\	.
16G#\	16a#\	.
16e\JJ	16b\JJ	.
=65	=65	=65
4A\ 4c#\)	16cc#\LL	.
.	16ee\	.
.	16aan\	f
.	16gg#\JJ)	.
4D\ 4A\	(16gg#\LL	p
.	16ff#\	.
.	16ddd\	f
.	16ccc#\JJ)	.
4D#\ 4F#\	(16ccc#\LL	p
.	16bb\)	.
.	(16bb\	.
.	16aa\JJ)	.
=66	=66	=66
4E\ 4G#\	(16aa\LL	.
.	16gg#\)	.
.	(16gg#\	.
.	16ff#\JJ)	.
4F#\ 4A\	(16ff#\LL	.
.	16ee\)	.
.	(16ee\	.
.	16dd#\JJ)	.
4r	4r	.
*clefG2	*	*
=67	=67	=67
(4f#/ (4a/	(16ff#\LL	p
.	16ee\)	.
.	(16ee\	.
.	16dd#\JJ)	.
4g#/) 4b/)	(16ff#\LL	.
.	16ee\)	.
.	(16ee\	.
.	16ddn\JJ)	.
4r	4r	.
*clefF4	*	*
=68	=68	=68
16A\ (16a\LL	4ccn\ 4aa\	f
16Gn\ 16gn\)	.	.
16G\ (16g\	.	.
16Fn\ 16fn\JJ)	.	.
16F\ (16f\LL	4aa\ 4cccn\	.
16E\ 16e\)	.	.
16E\ (16e\	.	.
16D#\ 16d#\JJ)	.	.
4r	4r	.
=69	=69	=69
*^	*	*
(4cn/	2E\	(4a\ (4dd#\	p
4B/)	.	4g#\) 4ee\)	.
4ryy	4r	4r	.
*v	*v	*	*
=70	=70	=70
(16A\LL	2aT/	f
16e\	.	.
16c#X\	.	.
16e\JJ	.	.
16A\LL	.	.
16e\	.	.
16c#\	.	.
16e\JJ	.	.
16E\LL	(32g#/LLL	.
.	32e/	.
16d\	32b/	.
.	32g#/JJJ	.
16B\	32ddn/LLL	.
.	32b/	.
16d\JJ	32a/	.
.	32g#/JJJ	.
=71	=71	=71
16A\ 16c#\LL)	16a/LL)	.
(16c#\	(16e/	p
16B#\	16d#/	.
16c#\JJ	16e/JJ	.
16dn\LL	16f#/LL	.
16c#\	16e/	.
16B#\	16d#X/	.
16c#\JJ	16e/JJ	.
16Bn\LL	16dn/LL	.
16A\	16c#/	.
16G#\	16B#/	.
16A\JJ)	16c#/JJ)	.
=72	=72	=72
(16E\LL	2bnT\	f
16B\	.	.
16G#\	.	.
16B\JJ	.	.
16E\LL	.	.
16B\	.	.
16G#\	.	.
16B\JJ	.	.
16E\LL	(32cc#\LLL	.
.	32a\	.
16c#\	32ee\	.
.	32cc#\JJJ	.
16A\	32aa\LLL	.
.	32ee\	.
16c#\JJ	32cc#\	.
.	32a\JJJ	.
=73	=73	=73
16G#\LL)	16dd/LL)	.
(16B\	(16d/	p
16A#\	16c#/	.
16B\JJ	16d/JJ	.
16c#\LL	16e/LL	.
16B\	16d/	.
16A#\	16c#/	.
16B\JJ	16d/JJ	.
16An\LL	16c#/LL	.
16G#\	16B/	.
16F#\	16A#/	.
16G#\JJ)	16B/JJ)	.
*clefG2	*	*
=74	=74	=74
(16c#/LL	[4ee\	p
16a/	.	.
16e/	.	.
16a/JJ	.	.
16c#/LL	(8.eeS\L]	f
16a/	.	.
16e/	.	.
16a/JJ	16ff#\Jk)	.
16B/LL	(8ee\L	.
16g#/	.	.
16e/	8ddn\J)	.
16g#/JJ	.	.
=75	=75	=75
16A/LL	[4cc#\	p
16a/	.	.
16e/	.	.
16a/JJ	.	.
*clefF4	*	*
16A\LL	(8.cc#S\L]	f
16e\	.	.
16c#\	.	.
16e\JJ	16ee\Jk)	.
16D\LL	(8a/L	.
16B\	.	.
16E\	8g#/J)	.
16B\JJ)	.	.
=76	=76	=76
4C#\ 4c#\	(16.a/LL	f
.	32b/k	.
.	16.a/	.
.	32g#/JJk	.
8r	16.a/LL)	.
.	(32e/k	p
8D\ (8d\L	16.g#/ 16.b/	.
.	32e/JJk	.
8C#\ 8c#\	16.a/ 16.cc#/LL	.
.	32e/k	.
8BB\ 8B\J)	16.b/ 16.dd/	.
.	32e/JJk)	.
=77	=77	=77
8AA/ 8A/L	[4cc#\ [4ee\	f
8CC#/ 8C#/J	.	.
2EE/ 2E/	16cc#\] 16ee\LL]	.
.	(32dd#\L	p
.	32ee\JJJ	.
.	32ff#\LLL	.
.	32ee\	.
.	32ddn\	.
.	32cc#\JJJ	.
.	8b\)	.
.	8r	.
=78	=78	=78
4AA\ 4A\	(24c#/LL	f
.	24a/	.
.	24e/JJ	.
.	24c#/LL	.
.	24a/	.
.	24e/JJ	.
4CC#/ 4C#/	24c#/LL	.
.	24a/	.
.	24e/JJ	.
.	24c#/LL	.
.	24a/	.
.	24e/JJ	.
4EE/ 4E/	24d/LL	.
.	24b/	.
.	24e/JJ	.
.	24d/LL	.
.	24g#/	.
.	24e/JJ	.
=79	=79	=79
(24A\LL	8a'/)	p
24e\	.	.
24c#\JJ	.	.
24B\LL	16.r	.
24e\	.	.
24d\JJ	.	.
.	32g#'/	.
24A\LL	8a'/	.
24e\	.	.
24c#\JJ	.	.
24G#\LL	16.r	.
24e\	.	.
24B\JJ	.	.
.	32b\	.
24A\LL	8cc#'\	.
24e\	.	.
24c#\JJ	.	.
24A\LL	8r	.
24e\	.	.
24c#\JJ)	.	.
=80	=80	=80
4GG#/ 4G#/	(24d/LL	f
.	24b/	.
.	24e/JJ	.
.	24d/LL	.
.	24b/	.
.	24e/JJ	.
4EE/ 4E/	24d/LL	.
.	24b/	.
.	24e/JJ	.
.	24d/LL	.
.	24g#/	.
.	24e/JJ	.
4AA\ 4A\	24c#/LL	.
.	24a/	.
.	24e/JJ	.
.	24c#/LL	.
.	24cc#/	.
.	24a/JJ	.
=81	=81	=81
(24G#\LL	8b'/)	p
24e\	.	.
24B\JJ	.	.
24A\LL	16r	.
24e\	.	.
.	16a'/	.
24c#\JJ	.	.
24B\LL	8g#'/	.
24e\	.	.
24d\JJ	.	.
24A\LL	16r	.
24e\	.	.
.	16a'/	.
24c#\JJ	.	.
24G#\LL	8dd'\	.
24e\	.	.
24B\JJ	.	.
24E\LL	8r	.
24e\	.	.
24G#\JJ)	.	.
=82	=82	=82
8C#\ 8c#\	16r	.
.	16ee\ (16eee\LL	.
8r	16dd#\ 16ddd#\	.
.	16ee\ 16eee\JJ)	.
8C#\ 8c#\	16r	.
.	16a\ (16aa\LL	.
8r	16g#\ 16gg#\	.
.	16a\ 16aa\JJ)	f
8BB\ 8B\	16r	.
.	16g#\ (16gg#\LL	.
8r	16b\ 16bb\	.
.	16ddn\ 16dddn\JJ)	.
=83	=83	=83
8AA\ 8A\	16r	.
.	16cc#\ (16ccc#\LL	p
8r	16b#\ 16bb#\	.
.	16cc#\ 16ccc#\JJ)	.
8AA\ 8A\	16r	.
.	16ee\ (16eee\LL	.
8r	16dd#\ 16ddd#\	.
.	16ee\ 16eee\JJ)	f
8D\ 8d\	16r	.
.	16e\ (16ee\LL	.
8r	16g#\ 16gg#\	.
.	16bn\ 16bbn\JJ)	.
=84	=84	=84
8r	(16.aaT\LL	p
.	64gg#\LL	.
.	64aa\JJJJ	.
8C#\ 8E\ 8A\	16ccc#\LL)	.
.	32r	.
.	32ee'\JJk	.
8r	(16.ff#T\LL	.
.	64ee#\LL	.
.	64ff#\JJJJ	.
8D\ 8F#\ 8A\	16aa\LL)	.
.	32r	.
.	32cc#'\JJk	.
8r	(16.ddT\LL	.
.	64cc#\LL	.
.	64dd\JJJJ	.
8F#\ 8A\ 8d\	16ff#\LL)	.
.	32r	.
.	32b'\JJk	.
=85	=85	=85
*^	*	*
8A/ (8c#/L	4E\	(24cc#\LL	f
.	.	24a\	.
.	.	24ee\JJ	.
8B/ 8d/J)	.	24dd\LL	.
.	.	24b\	.
.	.	24g#\JJ)	.
2ryy	(4E#\ 4B\ (4d\	(4g#/	.
.	8F#\) 8A\ 8c#\L)	8a/L)	.
.	8En\ 8A#\ 8c#\J	8gn/J	.
*v	*v	*	*
=86	=86	=86
8D\ 8F#\ 8B\	(8f#\L	p
8r	8ff#\J)	.
8E\ 8G#X\ 8B\	8r	.
8r	(16ee\LL	.
.	16dd\JJ)	.
8E\ 8G#\ 8d\	8r	.
8r	(16cc#\LL	.
.	16b\JJ)	.
=87	=87	=87
*^	*	*
8A/ (8c#/L	4E\	(24cc#\LL	.
.	.	24a\	.
.	.	24ee\JJ	.
8B/ 8d/J)	.	24dd\LL	.
.	.	24b\	.
.	.	24g#X\JJ)	.
2ryy	(4E#\ 4B\ (4d\	(4g#/	.
.	8F#\) 8A\ 8c#\L)	8a/L)	.
.	8En\ 8A#\ 8c#\J	8gn/J	.
=88	=88	=88	=88
4ryy	8D\ 8F#\ 8B\	(8f#\L	p
.	8r	8ff#\J)	.
(16A#/LL	8D\	8r	.
16B/JJ)	.	.	.
8ryy	8r	(16ee\LL	.
.	.	16dd\JJ)	.
(16c#/LL	8D\	8r	.
16d/JJ)	.	.	.
8ryy	8r	16cc#\LL	.
.	.	16b\JJ	.
=89	=89	=89	=89
(16A#/ 16c#/LL	8E\	8r	.
16B/ 16d/JJ)	.	.	.
8ryy	8r	(16an/LL	.
.	.	16g#/JJ)	.
4ryy	4r	4r	.
4ryy	4r;	4r;	.
*v	*v	*	*
=90	=90	=90
4r	(16a\LL	p
.	16b\	.
.	16cc#\	.
.	16dd\JJ	.
4C#\ 4A\	16ee\LL	.
.	16ff#\	.
.	16gg#\	.
.	16aa\JJ	.
4D\ 4A\	16gg#\LL	.
.	16ff#\	.
.	16ee\	.
.	16dd\JJ	.
=91	=91	=91
*^	*^	*
(8A/L	4E\	16cc#\LL	4ryy	f
.	.	16ee\	.	.
8G#/J)	.	16dd\)	.	.
.	.	16b\JJ	.	.
2ryy	8A\L	4d/ (4b/	2e\	.
.	8E\J	.	.	.
.	4AA/	4c#/ 4a/)	.	.
*	*	*v	*v	*
=92	=92	=92	=92
4r	4ryy	(16A/ 16c#/LL	p
.	.	16c#/ 16e/	.
.	.	16B/ 16d/	.
.	.	16G#/) 16B/JJ	.
(4D/ [4E/	2AA\	(4G#/ 4B/	.
8C#/) 8E/]	.	8A/)	.
8r	.	8r	.
*v	*v	*	*
==	==	==
*-	*-	*-
!!!SMS: Alte Mozart-Ausgabe, Band 20, Breitkopf &amp; H&auml;rtel 1877-1883.
!!!ONB: Stich und Druck von Breitkopf &amp; H&auml;rtel in Leipzig
!!!ONB: Ausgegeben 1878
!!!ENC: Craig Stuart Sapp
!!!END: 2009/09/24/
!!!title: @{OTL}, K 284 (205b), @{OMV}
!!!hum2abc: --no-tempo -s 0.702 --spacing 2.05 -p "%gracespace  0 6.0 12.0"
